X: 15077
T: Gerry Commane's
R: reel
M: 4/4
K: Dmixolydian
d2ed cBAG|(3ABc BG ABcA|dfed cAAF|DGGF GBAG|
(3FGF EF DEFG|Add^c defg|(3agf ge fded|1 d^cAF G2AB:|2 d^cAF Gefg||
|:~a3b agfg|~a3f g2fg|agbg agfg|dggf ~g2fg|
~a3g ~f2ed|(3Bcd ef g2fg|af (3gfe fded|1 d^cAF Gefg:|2 d^cAF ~G2AB||

